images/collab.svg

<svg width="800" height="800" viewBox="0 0 32 32" xmlns="http://www.w3.org/2000/svg"><path d="M6 21v-1H4v1a7 7 0 0 0 7 7h3v-2h-3a5 5 0 0 1-5-5ZM24 11v1h2v-1a7 7 0 0 0-7-7h-3v2h3a5 5 0 0 1 5 5ZM11 11H5a3 3 0 0 0-3 3v2h2v-2a1 1 0 0 1 1-1h6a1 1 0 0 1 1 1v2h2v-2a3 3 0 0 0-3-3ZM8 10a4 4 0 1 0-4-4 4 4 0 0 0 4 4Zm0-6a2 2 0 1 1-2 2 2 2 0 0 1 2-2ZM27 25h-6a3 3 0 0 0-3 3v2h2v-2a1 1 0 0 1 1-1h6a1 1 0 0 1 1 1v2h2v-2a3 3 0 0 0-3-3ZM20 20a4 4 0 1 0 4-4 4 4 0 0 0-4 4Zm6 0a2 2 0 1 1-2-2 2 2 0 0 1 2 2Z"/><path data-name="&lt;Transparent Rectangle&gt;" style="fill:none" d="M0 0h32v32H0z"/></svg>

<?xml version="1.0" encoding="utf-8"?><!-- Uploaded to: SVG Repo, www.svgrepo.com, Generator: SVG Repo Mixer Tools -->
<svg fill="#000000" width="800px" height="800px" viewBox="0 0 32 32" id="icon" xmlns="http://www.w3.org/2000/svg"><defs><style>.cls-1{fill:none;}</style></defs><title>collaborate</title><path d="M6,21V20H4v1a7,7,0,0,0,7,7h3V26H11A5,5,0,0,1,6,21Z" transform="translate(0)"/><path d="M24,11v1h2V11a7,7,0,0,0-7-7H16V6h3A5,5,0,0,1,24,11Z" transform="translate(0)"/><path d="M11,11H5a3,3,0,0,0-3,3v2H4V14a1,1,0,0,1,1-1h6a1,1,0,0,1,1,1v2h2V14A3,3,0,0,0,11,11Z" transform="translate(0)"/><path d="M8,10A4,4,0,1,0,4,6,4,4,0,0,0,8,10ZM8,4A2,2,0,1,1,6,6,2,2,0,0,1,8,4Z" transform="translate(0)"/><path d="M27,25H21a3,3,0,0,0-3,3v2h2V28a1,1,0,0,1,1-1h6a1,1,0,0,1,1,1v2h2V28A3,3,0,0,0,27,25Z" transform="translate(0)"/><path d="M20,20a4,4,0,1,0,4-4A4,4,0,0,0,20,20Zm6,0a2,2,0,1,1-2-2A2,2,0,0,1,26,20Z" transform="translate(0)"/><rect id="_Transparent_Rectangle_" data-name="&lt;Transparent Rectangle&gt;" class="cls-1" width="32" height="32"/></svg>
